frontend/public/icons/dark.svg

<svg width="10" height="auto" viewBox="0 0 10 10" fill="none" xmlns="http://www.w3.org/2000/svg">
<path d="M7.79584 6.68687C5.10919 6.68687 3.40274 5.0303 3.40274 2.37374C3.40274 1.79293 3.53987 1.0202 3.7227 0.611111C3.78365 0.479798 3.79888 0.388889 3.79888 0.318182C3.79888 0.156566 3.68207 0 3.47384 0C3.39766 0 3.27577 0.020202 3.14881 0.0656566C1.25952 0.818182 0 2.80303 0 4.90909C0 7.87374 2.25495 10 5.226 10C7.37938 10 9.26359 8.70707 9.9289 7.0202C9.98476 6.88889 10 6.75758 10 6.68687C10 6.4899 9.84764 6.35859 9.68512 6.35859C9.59878 6.35859 9.51752 6.37879 9.40071 6.42929C9.01981 6.56061 8.40528 6.68687 7.79584 6.68687Z" fill="white"/>
</svg>

<svg xmlns="http://www.w3.org/2000/svg" width="10" height="auto" fill="none" viewBox="0 0 10 10"><path fill="#fff" d="M7.796 6.687c-2.687 0-4.393-1.657-4.393-4.313 0-.581.137-1.354.32-1.763a.684.684 0 0 0 .076-.293A.312.312 0 0 0 3.474 0c-.076 0-.198.02-.325.066C1.259.818 0 2.803 0 4.909 0 7.874 2.255 10 5.226 10c2.153 0 4.038-1.293 4.703-2.98A.908.908 0 0 0 10 6.687a.319.319 0 0 0-.315-.328.687.687 0 0 0-.284.07c-.381.132-.996.258-1.605.258Z"/></svg>
